X:14322
T:Road to Ballymac, The
C:John Blessing
S:Treoir, 1991
I:speed 300
M:C
K:G
|:E | DG G2 BAGA | Bd d2 e2 de | gd d2 egdg | gedB ABGE |
DG G2 BAGA | Bd d2 e2 de | gd d2 egdB | cAFA G3:|
|:A | Bd d2 edBd | eg g2 a2 ga | bgag egde | gedB ABGA |
Bd d2 edBd | eg g2 a2 ga | bgag egdB | cAFA G3:|
